src/images/Bottle_Yellow_Foreground_IntroSection-01.svg

<svg width="100" height="137" viewBox="0 0 100 137" fill="none" xmlns="http://www.w3.org/2000/svg">
<g clip-path="url(#clip0)">
<path d="M13.4696 17.168H86.5237C87.6803 17.168 88.7896 17.6252 89.6074 18.4391C90.4253 19.2531 90.8847 20.357 90.8847 21.508V129.233C90.8847 131.293 90.0625 133.269 88.5989 134.725C87.1353 136.182 85.1503 137 83.0804 137H16.9198C14.85 137 12.8649 136.182 11.4013 134.725C9.93772 133.269 9.11548 131.293 9.11548 129.233V21.508C9.11548 20.3582 9.57399 19.2553 10.3904 18.4416C11.2067 17.6278 12.3142 17.1698 13.4696 17.168V17.168Z" fill="#F3C74A"/>
<path d="M11.0406 111.591H43.8794C46.7021 111.584 49.4067 110.463 51.4001 108.474C53.3934 106.485 54.5129 103.791 54.5129 100.982V43.112C54.5129 40.3028 53.3934 37.6084 51.4001 35.6194C49.4067 33.6305 46.7021 32.5095 43.8794 32.5022H11.0406C10.3169 32.5448 9.63909 32.869 9.15362 33.4048C8.66815 33.9406 8.41399 34.645 8.44606 35.3658V108.728C8.41399 109.449 8.66815 110.153 9.15362 110.689C9.63909 111.225 10.3169 111.549 11.0406 111.591V111.591Z" fill="#F8EEC8"/>
<g style="mix-blend-mode:multiply" opacity="0.67">
<path d="M8.97046 42.3566V20.3061C8.97046 19.1563 9.42897 18.0534 10.2453 17.2397C11.0617 16.4259 12.1692 15.9679 13.3246 15.9661H86.3511C86.9238 15.9661 87.4909 16.0783 88.02 16.2964C88.5491 16.5145 89.0298 16.8342 89.4348 17.2372C89.8398 17.6402 90.161 18.1187 90.3801 18.6452C90.5993 19.1718 90.7121 19.7362 90.7121 20.3061V28.1553L8.97046 42.3566Z" fill="#F3C74A"/>
</g>
<path d="M96.9638 0H3.03616C1.35933 0 0 1.3528 0 3.02155V20.8625C0 22.5312 1.35933 23.884 3.03616 23.884H96.9638C98.6407 23.884 100 22.5312 100 20.8625V3.02155C100 1.3528 98.6407 0 96.9638 0Z" fill="#F8F6E8"/>
<g style="mix-blend-mode:multiply">
<path d="M7.62481 24.6736V9.04394C7.62572 8.93875 7.60569 8.83443 7.56587 8.73699C7.52605 8.63954 7.46724 8.55092 7.39282 8.47622C7.3184 8.40152 7.22985 8.34223 7.13229 8.30177C7.03472 8.2613 6.93007 8.24047 6.82437 8.24048V8.24048C6.61208 8.24048 6.40848 8.3244 6.25837 8.47379C6.10826 8.62318 6.02393 8.8258 6.02393 9.03707V24.6736H7.62481Z" fill="#C0D5D0"/>
</g>
<g style="mix-blend-mode:multiply">
<path d="M22.288 24.6736V9.04394C22.289 8.93875 22.2689 8.83443 22.2291 8.73699C22.1893 8.63954 22.1305 8.55092 22.0561 8.47622C21.9816 8.40152 21.8931 8.34223 21.7955 8.30177C21.698 8.2613 21.5933 8.24047 21.4876 8.24048C21.2765 8.24409 21.0754 8.33056 20.9281 8.48104C20.7807 8.63152 20.6991 8.83384 20.701 9.04394V24.6736H22.288Z" fill="#C0D5D0"/>
</g>
<g style="mix-blend-mode:multiply">
<path d="M36.9515 24.6736V9.04394C36.9524 8.93875 36.9323 8.83443 36.8925 8.73699C36.8527 8.63954 36.7939 8.55092 36.7195 8.47622C36.6451 8.40152 36.5565 8.34223 36.4589 8.30177C36.3614 8.2613 36.2567 8.24047 36.151 8.24048V8.24048C35.9387 8.24048 35.7351 8.3244 35.585 8.47379C35.4349 8.62318 35.3506 8.8258 35.3506 9.03707V24.6736H36.9515Z" fill="#C0D5D0"/>
</g>
<g style="mix-blend-mode:multiply">
<path d="M51.6148 24.6736V9.04394C51.6157 8.93875 51.5957 8.83443 51.5559 8.73699C51.516 8.63954 51.4572 8.55092 51.3828 8.47622C51.3084 8.40152 51.2198 8.34223 51.1223 8.30177C51.0247 8.2613 50.9201 8.24047 50.8144 8.24048V8.24048C50.6021 8.24048 50.3985 8.3244 50.2484 8.47379C50.0982 8.62318 50.0139 8.8258 50.0139 9.03707V24.6736H51.6148Z" fill="#C0D5D0"/>
</g>
<g style="mix-blend-mode:multiply">
<path d="M66.2779 24.6736V9.04394C66.2788 8.93875 66.2588 8.83443 66.2189 8.73699C66.1791 8.63954 66.1203 8.55092 66.0459 8.47622C65.9715 8.40152 65.8829 8.34223 65.7854 8.30177C65.6878 8.2613 65.5831 8.24047 65.4774 8.24048V8.24048C65.2651 8.24048 65.0616 8.3244 64.9114 8.47379C64.7613 8.62318 64.677 8.8258 64.677 9.03707V24.6736H66.2779Z" fill="#C0D5D0"/>
</g>
<g style="mix-blend-mode:multiply">
<path d="M80.9411 24.6736V9.04394C80.942 8.93875 80.922 8.83443 80.8822 8.73699C80.8424 8.63954 80.7836 8.55092 80.7091 8.47622C80.6347 8.40152 80.5462 8.34223 80.4486 8.30177C80.351 8.2613 80.2464 8.24047 80.1407 8.24048V8.24048C79.9296 8.24409 79.7285 8.33056 79.5811 8.48104C79.4338 8.63152 79.3522 8.83384 79.354 9.04394V24.6736H80.9411Z" fill="#C0D5D0"/>
</g>
<g style="mix-blend-mode:multiply">
<path d="M95.6045 24.6736V9.04394C95.6054 8.93875 95.5854 8.83443 95.5456 8.73699C95.5058 8.63954 95.447 8.55092 95.3726 8.47622C95.2981 8.40152 95.2096 8.34223 95.112 8.30177C95.0144 8.2613 94.9098 8.24047 94.8041 8.24048V8.24048C94.5918 8.24048 94.3882 8.3244 94.2381 8.47379C94.088 8.62318 94.0037 8.8258 94.0037 9.03707V24.6736H95.6045Z" fill="#C0D5D0"/>
</g>
<g style="mix-blend-mode:multiply">
<path d="M0.483074 15.8562H99.5101C99.6382 15.8562 99.7611 15.9068 99.8517 15.997C99.9423 16.0871 99.9932 16.2094 99.9932 16.3369V21.9748C99.9932 22.7762 99.6733 23.5448 99.1039 24.1114C98.5345 24.6781 97.7622 24.9964 96.957 24.9964H3.03621C2.23097 24.9964 1.45871 24.6781 0.889319 24.1114C0.319929 23.5448 4.92946e-05 22.7762 4.92946e-05 21.9748V16.3438C-0.000865228 16.2801 0.0109533 16.2168 0.0348178 16.1577C0.0586823 16.0986 0.0941167 16.0448 0.139061 15.9994C0.184005 15.954 0.237563 15.918 0.296621 15.8934C0.355679 15.8689 0.419058 15.8562 0.483074 15.8562V15.8562Z" fill="#F8F6E8"/>
</g>
</g>
<defs>
<clipPath id="clip0">
<rect width="100" height="137" fill="white"/>
</clipPath>
</defs>
</svg>

<svg width="100" height="137" viewBox="0 0 100 137" fill="none" xmlns="http://www.w3.org/2000/svg"><g clip-path="url(#clip0)"><path d="M13.47 17.168h73.054c1.156 0 2.266.457 3.083 1.271a4.33 4.33 0 0 1 1.278 3.069v107.725c0 2.06-.823 4.036-2.286 5.492A7.822 7.822 0 0 1 83.08 137H16.92a7.822 7.822 0 0 1-5.519-2.275 7.747 7.747 0 0 1-2.286-5.492V21.508a4.33 4.33 0 0 1 1.275-3.066 4.371 4.371 0 0 1 3.08-1.274z" fill="#F3C74A"/><path d="M11.04 111.591h32.84a10.686 10.686 0 0 0 7.52-3.117 10.583 10.583 0 0 0 3.113-7.492v-57.87c0-2.81-1.12-5.504-3.113-7.493a10.687 10.687 0 0 0-7.52-3.117H11.04a2.765 2.765 0 0 0-1.886.903 2.739 2.739 0 0 0-.708 1.96v73.363a2.739 2.739 0 0 0 .708 1.961c.485.536 1.163.86 1.887.902z" fill="#F8EEC8"/><path d="M8.97 42.357v-22.05a4.33 4.33 0 0 1 1.275-3.067 4.371 4.371 0 0 1 3.08-1.274H86.35a4.38 4.38 0 0 1 3.084 1.271 4.337 4.337 0 0 1 1.277 3.07v7.848L8.97 42.357z" fill="#F3C74A" opacity=".67"/><path d="M96.964 0H3.036A3.029 3.029 0 0 0 0 3.022v17.84a3.029 3.029 0 0 0 3.036 3.022h93.928A3.029 3.029 0 0 0 100 20.863V3.021A3.029 3.029 0 0 0 96.964 0z" fill="#F8F6E8"/><path d="M7.625 24.674V9.044a.793.793 0 0 0-.493-.742.802.802 0 0 0-1.108.735v15.637h1.6zM22.288 24.674V9.044a.792.792 0 0 0-.492-.742.803.803 0 0 0-.308-.062.802.802 0 0 0-.787.804v15.63h1.587zM36.952 24.674V9.044a.794.794 0 0 0-.493-.742.802.802 0 0 0-1.108.735v15.637h1.6zM51.615 24.674V9.044a.794.794 0 0 0-.493-.742.802.802 0 0 0-1.108.735v15.637h1.6zM66.278 24.674V9.044a.792.792 0 0 0-.493-.742.803.803 0 0 0-1.108.735v15.637h1.6zM80.941 24.674V9.044a.794.794 0 0 0-.492-.742.804.804 0 0 0-.308-.062.803.803 0 0 0-.787.804v15.63h1.587zM95.605 24.674V9.044a.794.794 0 0 0-.493-.742.802.802 0 0 0-1.108.735v15.637h1.6z" fill="#C0D5D0"/><path d="M.483 15.856H99.51a.484.484 0 0 1 .483.48v5.639c0 .801-.32 1.57-.89 2.136a3.044 3.044 0 0 1-2.146.885H3.037a3.043 3.043 0 0 1-2.148-.885A3.014 3.014 0 0 1 0 21.975v-5.631a.479.479 0 0 1 .483-.488z" fill="#F8F6E8"/></g><defs><clipPath id="clip0"><path fill="#fff" d="M0 0h100v137H0z"/></clipPath></defs></svg>
